build/documents/SendSignOutline.svg

<svg xmlns="http://www.w3.org/2000/svg" fill="none" viewBox="0 0 24 24" focusable="false"><path d="M0 0H24V24H0z"/><path fill="#74767B" fill-rule="evenodd" d="M15.7104 8.43567C15.9583 8.6654 16.3435 8.65774 16.5821 8.41835L19.0212 5.97082L18.9411 7.94207C18.933 8.2895 19.2151 8.56533 19.5626 8.57337C19.9029 8.57486 20.1858 8.29933 20.1939 7.9519L20.2451 4.4282C20.2512 4.02639 19.9133 3.71171 19.5129 3.74639L15.9231 3.9658C15.7534 3.97865 15.6199 4.05148 15.515 4.16412C15.397 4.29084 15.3348 4.45641 15.3481 4.63972C15.3809 4.98569 15.6826 5.2404 16.0221 5.21469L18.1106 5.11352C18.1106 5.11352 16.8421 6.36882 15.6894 7.53678C15.441 7.78843 15.4511 8.19534 15.7104 8.43567ZM9.27984 4.47159C8.77215 3.96391 7.94904 3.96391 7.44136 4.47159L5.7443 6.16865C5.23662 6.67633 5.23662 7.49944 5.7443 8.00712L16.2167 18.4795C16.6142 18.8771 17.1155 19.1549 17.6634 19.2813L19.3945 19.6808C20.3306 19.8969 21.1695 19.0579 20.9535 18.1218L20.554 16.3907C20.4276 15.8428 20.1498 15.3415 19.7522 14.944L9.27984 4.47159ZM8.3606 5.39083L6.66354 7.08788L8.28467 8.70902L9.98173 7.01196L8.3606 5.39083ZM10.901 7.9312L18.8329 15.8632C19.0582 16.0885 19.2157 16.3726 19.2873 16.683L19.6868 18.4141L17.9557 18.0146C17.6453 17.943 17.3612 17.7855 17.1359 17.5602L9.20391 9.62826L10.901 7.9312ZM6.65244 19.9092C7.83343 19.9092 8.55417 19.3011 9.10676 18.8349L9.139 18.8077C9.70604 18.3297 10.106 18.0123 10.7938 18.0123C12.0657 18.0123 12.6923 18.7912 13.1615 19.3744C13.2574 19.4936 13.3468 19.6046 13.4337 19.6992C13.6767 19.9634 14.0879 19.9807 14.3522 19.7377C14.6164 19.4947 14.6336 19.0835 14.3906 18.8192C14.358 18.7837 14.3131 18.725 14.2552 18.6493C13.8432 18.1105 12.7739 16.7123 10.7938 16.7123C9.6069 16.7123 8.88411 17.322 8.32979 17.7896L8.30111 17.8138C7.7328 18.2929 7.33539 18.6092 6.65245 18.6092C5.26833 18.6092 4.6649 17.7839 4.28518 17.2646C4.24801 17.2137 4.21297 17.1658 4.17956 17.1219C3.96221 16.8362 3.5544 16.7808 3.26869 16.9981C2.98298 17.2155 2.92757 17.6233 3.14493 17.909C3.16983 17.9417 3.19894 17.9823 3.23261 18.0293C3.61403 18.5611 4.58092 19.9092 6.65244 19.9092Z"/></svg>

<svg xmlns="http://www.w3.org/2000/svg" fill="none" viewBox="0 0 24 24" focusable="false"><path fill="#74767B" fill-rule="evenodd" d="M16.58 8.41c-.24.24-.63.25-.87.02a.634.634 0 0 1-.03-.9c1.16-1.17 2.43-2.42 2.43-2.42l-2.09.1c-.34.03-.64-.23-.68-.58-.01-.18.05-.34.17-.47.1-.11.24-.19.41-.2l3.59-.22c.4-.03.74.28.73.68l-.05 3.53c-.01.34-.29.62-.63.62a.625.625 0 0 1-.62-.63l.08-1.97zM9.27 4.47c-.5-.51-1.33-.51-1.83 0l-1.7 1.69c-.51.51-.51 1.33 0 1.84l10.47 10.47c.4.4.9.68 1.45.81l1.73.4c.94.21 1.77-.63 1.56-1.56l-.4-1.73c-.13-.55-.41-1.05-.8-1.45zm-.91.92-1.7 1.69L8.28 8.7l1.7-1.69zm2.54 2.54 7.93 7.93c.22.22.38.51.45.82l.4 1.73-1.73-.4c-.31-.07-.59-.23-.82-.45L9.2 9.62zM6.65 19.9c1.18 0 1.9-.6 2.45-1.07l.03-.03c.57-.48.97-.79 1.66-.79 1.27 0 1.9.78 2.37 1.36.09.12.18.23.27.32.24.27.65.29.92.04.26-.24.28-.65.04-.92-.04-.03-.08-.09-.14-.17-.41-.53-1.48-1.93-3.46-1.93-1.19 0-1.91.61-2.47 1.07l-.02.03c-.57.48-.97.79-1.65.79-1.39 0-1.99-.82-2.37-1.34-.04-.05-.07-.1-.11-.14a.65.65 0 0 0-.91-.13c-.28.22-.34.63-.12.91q.03.06.09.12c.38.54 1.35 1.88 3.42 1.88"/></svg>
